!!!COM:	Pipelare, Matthaeus
!!!CDT:	~1450///-~1550//
!!!OPR:	Missa Fors seulement
!!!ONM:	5
!!!OTL:	Agnus Dei
!!!AGN:	Mass; Agnus Dei
!!!SCT:	Pip1004e
!!!SCA:	Pip1004e
!!!voices-OPR:	5
!!!voices:	5
**kern	**text	**kern	**text	**kern	**text	**kern	**text	**kern	**text
*staff5	*staff5	*staff4	*staff4	*staff3	*staff3	*staff2	*staff2	*staff1	*staff1
*Ivox	*	*Ivox	*	*Ivox	*	*Ivox	*	*Ivoxa	*
*I"Bassus	*	*I"Tenor2	*	*I"Contra	*	*I"Tenor1	*	*I"Superius	*
*I'B	*	*I'T2	*	*I'C	*	*I'T1	*	*I'S	*
*>[A,B,C]	*>[A,B,C]	*>[A,B,C]	*>[A,B,C]	*>[A,B,C]	*>[A,B,C]	*>[A,B,C]	*>[A,B,C]	*>[A,B,C]	*>[A,B,C]
*>A	*>A	*>A	*>A	*>A	*>A	*>A	*>A	*>A	*>A
*clefF4	*	*clefF4	*	*clefF4	*	*clefGv2	*	*clefGv2	*
*k[]	*	*k[]	*	*k[]	*	*k[]	*	*k[]	*
*M2/1	*	*M2/1	*	*M2/1	*	*M2/1	*	*M2/1	*
*met(C|)	*	*met(C|)	*	*met(C|)	*	*met(C|)	*	*met(C|)	*
!!section: Agnus Dei I
!!!OMD: Agnus Dei I
=1-	=1-	=1-	=1-	=1-	=1-	=1-	=1-	=1-	=1-
0r	.	0r	.	0D	A-	0r	.	0r	.
=2	=2	=2	=2	=2	=2	=2	=2	=2	=2
0r	.	0r	.	1F	.	0r	.	0r	.
.	.	.	.	1E	.	.	.	.	.
=3	=3	=3	=3	=3	=3	=3	=3	=3	=3
0r	.	0r	.	1F	.	0r	.	0d	A-
.	.	.	.	1G	.	.	.	.	.
=4	=4	=4	=4	=4	=4	=4	=4	=4	=4
0r	.	0r	.	1.A	.	0r	.	1f	.
.	.	.	.	.	.	.	.	1e	.
.	.	.	.	2G\	.	.	.	.	.
=5	=5	=5	=5	=5	=5	=5	=5	=5	=5
0r	.	0r	.	2F\	.	0r	.	1f	.
.	.	.	.	4E\	.	.	.	.	.
.	.	.	.	4D\	.	.	.	.	.
.	.	.	.	1E	.	.	.	1g	.
=6	=6	=6	=6	=6	=6	=6	=6	=6	=6
0r	.	0r	.	2D\	.	0r	.	1.a	.
.	.	.	.	1F	.	.	.	.	.
.	.	.	.	2E\	.	.	.	2g\	.
=7	=7	=7	=7	=7	=7	=7	=7	=7	=7
0r	.	0r	.	2D\	.	0r	.	2f\	.
.	.	.	.	4C/	.	.	.	4e\	.
.	.	.	.	4BB/	.	.	.	4d\	.
.	.	.	.	1AA	-gnus	.	.	2f\	.
.	.	.	.	.	.	.	.	2e\	.
=8	=8	=8	=8	=8	=8	=8	=8	=8	=8
0r	.	0r	.	2r	.	0r	.	2d\	.
.	.	.	.	1A	De-	.	.	2c\	.
.	.	.	.	.	.	.	.	1B	.
.	.	.	.	2G\	.	.	.	.	.
=9	=9	=9	=9	=9	=9	=9	=9	=9	=9
0r	.	0r	.	2F\	.	0r	.	1A	-gnus
.	.	.	.	2.A\	.	.	.	.	.
.	.	.	.	.	.	.	.	2r	.
.	.	.	.	4G\	.	.	.	.	.
.	.	.	.	4F\	.	.	.	[2a\	De-
.	.	.	.	4E\	.	.	.	.	.
=10	=10	=10	=10	=10	=10	=10	=10	=10	=10
0r	.	0r	.	2D\	.	0r	.	2a\]	.
.	.	.	.	2E\	.	.	.	2g\	.
.	.	.	.	2F\	.	.	.	2f\	.
.	.	.	.	2G\	.	.	.	[2e\	.
=11	=11	=11	=11	=11	=11	=11	=11	=11	=11
0r	.	0r	.	2E\	.	0r	.	2e\]	.
.	.	.	.	2F\	.	.	.	4d\	.
.	.	.	.	.	.	.	.	4c\	.
.	.	.	.	2G\	.	.	.	2B\	.
.	.	.	.	[2A\	.	.	.	2c\	.
=12	=12	=12	=12	=12	=12	=12	=12	=12	=12
0r	.	0r	.	2A\]	.	0r	.	2A/	.
.	.	.	.	2F\	.	.	.	1d	.
.	.	.	.	1E	.	.	.	.	.
.	.	.	.	.	.	.	.	2c#i\	.
=13	=13	=13	=13	=13	=13	=13	=13	=13	=13
2r	.	1r	.	0D	-i	[0A	A-	0d	-i
1D	A-	.	.	.	.	.	.	.	.
.	.	2r	.	.	.	.	.	.	.
4C/	.	[2A\	A-	.	.	.	.	.	.
4BB/	.	.	.	.	.	.	.	.	.
=14	=14	=14	=14	=14	=14	=14	=14	=14	=14
2.AA/	.	2A\]	.	0r	.	0A]	.	0r	.
.	.	4G\	.	.	.	.	.	.	.
4BB/	.	4F\	.	.	.	.	.	.	.
2C/	.	2E\	.	.	.	.	.	.	.
[2D\	.	2D\	.	.	.	.	.	.	.
=15	=15	=15	=15	=15	=15	=15	=15	=15	=15
2D\]	.	1E	.	0r	.	0A	-gnus	0r	.
2C#i/	.	.	.	.	.	.	.	.	.
1D	-gnus	2D\	.	.	.	.	.	.	.
.	.	[2F\	.	.	.	.	.	.	.
=16	=16	=16	=16	=16	=16	=16	=16	=16	=16
2r	.	4F\]	.	0r	.	0A	De-	0r	.
.	.	4E\	.	.	.	.	.	.	.
2.DD/	De-	4D\	.	.	.	.	.	.	.
.	.	4C/	.	.	.	.	.	.	.
.	.	1D	.	.	.	.	.	.	.
4EE/	.	.	.	.	.	.	.	.	.
4FF/	.	.	.	.	.	.	.	.	.
4GG/	.	.	.	.	.	.	.	.	.
=17	=17	=17	=17	=17	=17	=17	=17	=17	=17
[0AA	.	[0C	-gnus	2r	.	0A	-i	0r	.
.	.	.	.	1E	qui	.	.	.	.
.	.	.	.	[2F\	.	.	.	.	.
=18	=18	=18	=18	=18	=18	=18	=18	=18	=18
1AA]	.	1C]	.	4F\]	.	0A	[A-	0r	.
.	.	.	.	4E\	.	.	.	.	.
.	.	.	.	4D\	.	.	.	.	.
.	.	.	.	4C/	.	.	.	.	.
1FF	.	1AA	De-	1D	.	.	.	.	.
=19	=19	=19	=19	=19	=19	=19	=19	=19	=19
[0EE	.	2BB/	.	[0E	tol-	0G	-gnus	0r	.
.	.	2C/	.	.	.	.	.	.	.
.	.	2BB/	.	.	.	.	.	.	.
.	.	[2C/	.	.	.	.	.	.	.
=20	=20	=20	=20	=20	=20	=20	=20	=20	=20
0EE]	.	2C/]	.	0E]	.	0G	De-	0r	.
.	.	4BB/	.	.	.	.	.	.	.
.	.	4AA/	.	.	.	.	.	.	.
.	.	1BB	.	.	.	.	.	.	.
=21	=21	=21	=21	=21	=21	=21	=21	=21	=21
0FF	.	[0AA	-i	0C	.	[0A	-i]	0r	.
=22	=22	=22	=22	=22	=22	=22	=22	=22	=22
[0DD	-i	0AA]	.	[0D	.	0A]	.	0r	.
=23	=23	=23	=23	=23	=23	=23	=23	=23	=23
0DD_	.	1r	.	0D]	.	0r	.	[0A	qui
.	.	[1AA	qui	.	.	.	.	.	.
=24	=24	=24	=24	=24	=24	=24	=24	=24	=24
0DD]	.	1AA]	.	1D	-lis	0r	.	0A]	.
.	.	1D	.	1AA	.	.	.	.	.
=25	=25	=25	=25	=25	=25	=25	=25	=25	=25
0r	.	2.C/	.	0r	.	0r	.	1c	.
.	.	4D\	.	.	.	.	.	.	.
.	.	2E\	.	.	.	.	.	2B\	.
.	.	[2F\	.	.	.	.	.	[2A/	.
=26	=26	=26	=26	=26	=26	=26	=26	=26	=26
0r	.	2F\]	.	1r	.	0r	.	2A/]	.
.	.	2E\	.	.	.	.	.	2G/	.
.	.	2D\	.	[1A	pec-	.	.	2F/	.
.	.	4C/	.	.	.	.	.	4E/	.
.	.	4BB/	.	.	.	.	.	4D/	.
=27	=27	=27	=27	=27	=27	=27	=27	=27	=27
0r	.	[0AA	.	1A]	.	[0c	qui	[0E	.
.	.	.	.	1A	-ca-	.	.	.	.
=28	=28	=28	=28	=28	=28	=28	=28	=28	=28
0r	.	0AA]	.	1.A	-ta	1c]	.	0E]	.
.	.	.	.	.	.	1c	tol-	.	.
.	.	.	.	4G\	.	.	.	.	.
.	.	.	.	4F\	.	.	.	.	.
=29	=29	=29	=29	=29	=29	=29	=29	=29	=29
[0AA	qui	1r	.	1E	.	0c	-lis	0r	.
.	.	[1A	[qui]	2E\	[pec-	.	.	.	.
.	.	.	.	[2F\	-ca-	.	.	.	.
=30	=30	=30	=30	=30	=30	=30	=30	=30	=30
0AA]	.	1A]	.	2F\]	.	0c	[qui	1r	.
.	.	.	.	4E\	.	.	.	.	.
.	.	.	.	4D\	.	.	.	.	.
.	.	1A	tol-	1E	.	.	.	1e	[qui]
=31	=31	=31	=31	=31	=31	=31	=31	=31	=31
0DD	.	1F	.	0D	-ta]	0d	tol-	1f	tol-
.	.	1D	.	.	.	.	.	1f	-lis
=32	=32	=32	=32	=32	=32	=32	=32	=32	=32
1AA	.	1.E	.	0r	.	1c	.	1e	pec-
1r	.	.	.	.	.	[1B	.	2e\	-ca-
.	.	2F\	.	.	.	.	.	[2d\	.
=33	=33	=33	=33	=33	=33	=33	=33	=33	=33
0r	.	1G	.	0r	.	1B]	.	2d\]	.
.	.	.	.	.	.	.	.	4c\	.
.	.	.	.	.	.	.	.	4B\	.
.	.	1A	.	.	.	[1A	.	2c\	.
.	.	.	.	.	.	.	.	[2e\	.
=34	=34	=34	=34	=34	=34	=34	=34	=34	=34
0r	.	0E	.	0r	.	1A]	.	2e\]	.
.	.	.	.	.	.	.	.	4d\	.
.	.	.	.	.	.	.	.	4c\	.
.	.	.	.	.	.	1G#i	.	1B	.
=35	=35	=35	=35	=35	=35	=35	=35	=35	=35
1r	.	0AA	-lis	1r	.	[0A	-lis]	0A	-ta
[1AA	tol-	.	.	[1E	mun-	.	.	.	.
=36	=36	=36	=36	=36	=36	=36	=36	=36	=36
1AA]	.	0r	.	1E]	.	0A]	.	0r	.
1FF	.	.	.	1F	.	.	.	.	.
=37	=37	=37	=37	=37	=37	=37	=37	=37	=37
1GG	.	1r	.	2D\	.	0r	.	0r	.
.	.	.	.	1E	.	.	.	.	.
1AA	.	2r	.	.	.	.	.	.	.
.	.	[2AA/	pec-	[2F\	.	.	.	.	.
=38	=38	=38	=38	=38	=38	=38	=38	=38	=38
2FF/	.	2AA/]	.	4F\]	.	0r	.	0r	.
.	.	.	.	4E\	.	.	.	.	.
2GG/	.	2BB/	.	1D	.	.	.	.	.
1EE	.	1GG	.	.	.	.	.	.	.
.	.	.	.	2C#i/	.	.	.	.	.
=39	=39	=39	=39	=39	=39	=39	=39	=39	=39
1DD	-lis	2.AA/	-ca-	1D	-di	[0A	pec-	2r	.
.	.	.	.	.	.	.	.	1a	mun-
.	.	4BB/	.	.	.	.	.	.	.
2r	.	2C/	.	1r	.	.	.	.	.
[2D\	pec-	2D\	.	.	.	.	.	4g\	.
.	.	.	.	.	.	.	.	4f\	.
=40	=40	=40	=40	=40	=40	=40	=40	=40	=40
2D\]	.	1AA	-ta	0r	.	0A]	.	1e	.
2C/	.	.	.	.	.	.	.	.	.
2D\	-ca-	2r	.	.	.	.	.	1d	-di
4C/	.	[2A\	[pec-	.	.	.	.	.	.
4BB/	.	.	.	.	.	.	.	.	.
=41	=41	=41	=41	=41	=41	=41	=41	=41	=41
2.AA/	.	2A\]	.	0r	.	[0A	-ca-	1r	.
.	.	4G\	.	.	.	.	.	.	.
4BB/	.	4F\	.	.	.	.	.	.	.
2C/	.	2E\	.	.	.	.	.	2r	.
2D\	.	[2A\	-ca-	.	.	.	.	2f\	[mun-
=42	=42	=42	=42	=42	=42	=42	=42	=42	=42
2C/	.	4A\]	.	0r	.	0A]	.	2e\	.
.	.	4G\	.	.	.	.	.	.	.
2D\	.	2F\	.	.	.	.	.	1d	.
1AA	.	1E	.	.	.	.	.	.	.
.	.	.	.	.	.	.	.	2c#i\	.
=43	=43	=43	=43	=43	=43	=43	=43	=43	=43
[0DD	-ta	[0D	-ta]	1r	.	0A	-ta	[0d	-di]
.	.	.	.	[1F	mi-	.	.	.	.
=44	=44	=44	=44	=44	=44	=44	=44	=44	=44
0DD]	.	0D_	.	1F]	.	0A	mun-	0d_	.
.	.	.	.	1F	-se-	.	.	.	.
=45	=45	=45	=45	=45	=45	=45	=45	=45	=45
[0GG	.	0D]	.	1G	-re-	0B	.	0d]	.
.	.	.	.	2G\	-re	.	.	.	.
.	.	.	.	[2G\	[mi-	.	.	.	.
=46	=46	=46	=46	=46	=46	=46	=46	=46	=46
0GG]	.	0BB	.	2G\]	.	0G	.	0r	.
.	.	.	.	4F\	.	.	.	.	.
.	.	.	.	4E\	.	.	.	.	.
.	.	.	.	2D\	.	.	.	.	.
.	.	.	.	2E\	-se-	.	.	.	.
=47	=47	=47	=47	=47	=47	=47	=47	=47	=47
1FF	mun-	1C	mun-	0F	-re	[0A	-di	1r	.
1DD	.	1D	.	.	.	.	.	[1d	mi-
=48	=48	=48	=48	=48	=48	=48	=48	=48	=48
0AA	.	1AA	-di	0E	.	0A]	.	1d]	.
.	.	[1A	mi-	.	.	.	.	1c	.
=49	=49	=49	=49	=49	=49	=49	=49	=49	=49
0DD	-di	1A]	.	[0D	.	0r	.	1d	-se-
.	.	1A	-se-	.	.	.	.	[1f	-re-
=50	=50	=50	=50	=50	=50	=50	=50	=50	=50
0r	.	1F	-re-	1D]	.	0r	.	1f]	.
.	.	1G	.	1C	.	.	.	1e	.
=51	=51	=51	=51	=51	=51	=51	=51	=51	=51
0r	.	1F	.	1.D	re]	0r	.	2d\	.
.	.	.	.	.	.	.	.	1f	-re
.	.	2F\	-re	.	.	.	.	.	.
.	.	[2A\	no-	4C/	.	.	.	4e\	.
.	.	.	.	4BB/	.	.	.	4d\	.
=52	=52	=52	=52	=52	=52	=52	=52	=52	=52
1r	.	2A\]	.	0AA	.	0A	mi-	0c	.
.	.	4G\	.	.	.	.	.	.	.
.	.	4F\	.	.	.	.	.	.	.
[1AA	mi-	[1E	.	.	.	.	.	.	.
=53	=53	=53	=53	=53	=53	=53	=53	=53	=53
1AA]	.	1E]	.	0r	.	1.A	-se-	0r	.
1D	.	1F	-bis	.	.	.	.	.	.
.	.	.	.	.	.	2B\	.	.	.
=54	=54	=54	=54	=54	=54	=54	=54	=54	=54
1C	-se-	1E	[mi-	0r	.	1c	-re-	0r	.
1D	.	1F	.	.	.	[1B	-re	.	.
=55	=55	=55	=55	=55	=55	=55	=55	=55	=55
1E	-re-	1G	-se-	0r	.	1B]	.	0r	.
2C/	.	2E\	.	.	.	[1A	no-	.	.
2D\	.	[2F\	.	.	.	.	.	.	.
=56	=56	=56	=56	=56	=56	=56	=56	=56	=56
2AA/	.	4F\]	.	0r	.	1A]	.	1r	.
.	.	4E\	.	.	.	.	.	.	.
2C/	.	1E	-re-	.	.	.	.	.	.
1BB	.	.	.	.	.	1G#i	.	1d	no-
.	.	2D\	.	.	.	.	.	.	.
=57	=57	=57	=57	=57	=57	=57	=57	=57	=57
1AA	-re	4E\	-re	1r	.	[0Al	-bis	2c\	.
.	.	4D\	.	.	.	.	.	.	.
.	.	4C/	.	.	.	.	.	2.e\	.
.	.	4BB/	.	.	.	.	.	.	.
2r	.	2AA/	no-	2r	.	.	.	.	.
.	.	.	.	.	.	.	.	4d\	.
2AA/	no-	[2A\	.	[2AA/	no-	.	.	4c\	.
.	.	.	.	.	.	.	.	4B\	.
=58	=58	=58	=58	=58	=58	=58	=58	=58	=58
2FF/	.	2A\]	.	2AA/]	.	0A_	.	2A/	.
2DD/	.	4G\	.	1A	.	.	.	1d	.
.	.	4F\	.	.	.	.	.	.	.
1AA	.	1E	.	.	.	.	.	.	.
.	.	.	.	2A\	.	.	.	2c#i\	.
=59	=59	=59	=59	=59	=59	=59	=59	=59	=59
[0DDl	-bis	[0Dl	-bis]	2F\	.	0A_	.	[0dl	-bis
.	.	.	.	2D\	.	.	.	.	.
.	.	.	.	2.F\	.	.	.	.	.
.	.	.	.	4G\	.	.	.	.	.
=60	=60	=60	=60	=60	=60	=60	=60	=60	=60
0DD]	.	0D]	.	0Al	-bis	0A]	.	0d]	.
!!LO:LB:i:g=z
=61||	=61||	=61||	=61||	=61||	=61||	=61||	=61||	=61||	=61||
*>B	*>B	*>B	*>B	*>B	*>B	*>B	*>B	*>B	*>B
*clefF4	*	*clefF4	*	*clefF4	*	*clefGv2	*	*clefGv2	*
*k[]	*	*k[]	*	*k[]	*	*k[]	*	*k[]	*
*M2/1	*	*M2/1	*	*M2/1	*	*M2/1	*	*M2/1	*
*met(C|)	*	*met(C|)	*	*met(C|)	*	*met(C|)	*	*met(C|)	*
!!section: Agnus Dei II
!!!OMD: Agnus Dei II
1.D	A-	0r	.	0r	.	0r	.	0r	.
4C/	.	.	.	.	.	.	.	.	.
4BB/	.	.	.	.	.	.	.	.	.
=62	=62	=62	=62	=62	=62	=62	=62	=62	=62
1C	.	1.A	A-	0r	.	0r	.	0r	.
1D	.	.	.	.	.	.	.	.	.
.	.	4G\	.	.	.	.	.	.	.
.	.	4F\	.	.	.	.	.	.	.
=63	=63	=63	=63	=63	=63	=63	=63	=63	=63
1BB	-gnus	1G	.	0r	.	0r	.	0r	.
1AA	.	1A	-gnus	.	.	.	.	.	.
=64	=64	=64	=64	=64	=64	=64	=64	=64	=64
2r	.	1F	De-	0r	.	0r	.	0r	.
1AA	De-	.	.	.	.	.	.	.	.
.	.	[1E	.	.	.	.	.	.	.
[2C/	.	.	.	.	.	.	.	.	.
=65	=65	=65	=65	=65	=65	=65	=65	=65	=65
2C/]	.	2E\]	.	0r	.	0r	.	0r	.
2BB/	.	2D\	.	.	.	.	.	.	.
2.AA/	.	2F\	.	.	.	.	.	.	.
.	.	[2E\	.	.	.	.	.	.	.
4GG/	.	.	.	.	.	.	.	.	.
=66	=66	=66	=66	=66	=66	=66	=66	=66	=66
2FF/	.	4E\]	.	0r	.	0r	.	0r	.
.	.	4D\	.	.	.	.	.	.	.
4EE/	.	1D	.	.	.	.	.	.	.
4DD/	.	.	.	.	.	.	.	.	.
1EE	.	.	.	.	.	.	.	.	.
.	.	2C/	.	.	.	.	.	.	.
=67	=67	=67	=67	=67	=67	=67	=67	=67	=67
1DD	-i	2D\	.	0r	.	0A	A-	0r	.
.	.	1F	.	.	.	.	.	.	.
2r	.	.	.	.	.	.	.	.	.
[2D\	qui	4E\	.	.	.	.	.	.	.
.	.	4D\	.	.	.	.	.	.	.
=68	=68	=68	=68	=68	=68	=68	=68	=68	=68
2D\]	.	1E	.	1r	.	1A	-gnus	0r	.
2C/	.	.	.	.	.	.	.	.	.
2D\	tol-	1D	-i	2r	.	1A	De-	.	.
4C/	.	.	.	[2A\	A-	.	.	.	.
4BB/	.	.	.	.	.	.	.	.	.
=69	=69	=69	=69	=69	=69	=69	=69	=69	=69
2AA/	.	0r	.	2A\]	.	1A	-i	0r	.
1C	.	.	.	4G\	.	.	.	.	.
.	.	.	.	4F\	.	.	.	.	.
.	.	.	.	2E\	.	1A	[a-	.	.
2D\	.	.	.	2F\	-gnus	.	.	.	.
=70	=70	=70	=70	=70	=70	=70	=70	=70	=70
2E\	.	1r	.	2G\	De-	1G	-gnus	0r	.
4D\	.	.	.	4F\	.	.	.	.	.
4C/	.	.	.	4E\	.	.	.	.	.
1BB	.	2r	.	1D	.	1G	De-	.	.
.	.	2D\	qui	.	.	.	.	.	.
=71	=71	=71	=71	=71	=71	=71	=71	=71	=71
0AA	-lis	2C/	.	1E	-i	0A	-i]	0r	.
.	.	2.E\	tol-	.	.	.	.	.	.
.	.	.	.	2r	.	.	.	.	.
.	.	4D\	.	.	.	.	.	.	.
.	.	4C/	.	[2E\	qui	.	.	.	.
.	.	4BB/	.	.	.	.	.	.	.
=72	=72	=72	=72	=72	=72	=72	=72	=72	=72
0r	.	2AA/	.	4E\]	.	0r	.	0r	.
.	.	.	.	4F\	.	.	.	.	.
.	.	1E	.	4G\	.	.	.	.	.
.	.	.	.	4A\	.	.	.	.	.
.	.	.	.	2B\	.	.	.	.	.
.	.	4D\	.	2c\	.	.	.	.	.
.	.	4C/	.	.	.	.	.	.	.
=73	=73	=73	=73	=73	=73	=73	=73	=73	=73
0r	.	4D\	.	2B\	.	0r	.	0r	.
.	.	4C/	.	.	.	.	.	.	.
.	.	4BB/	.	1A	.	.	.	.	.
.	.	4AA/	.	.	.	.	.	.	.
.	.	1BB	.	.	.	.	.	.	.
.	.	.	.	2G\	.	.	.	.	.
=74	=74	=74	=74	=74	=74	=74	=74	=74	=74
1r	.	1AA	-lis	2A\	tol-	1.c	qui	0r	.
.	.	.	.	4G\	.	.	.	.	.
.	.	.	.	4F\	.	.	.	.	.
[1AA	pec-	1r	.	2E\	.	.	.	.	.
.	.	.	.	[2F\	.	2c\	tol-	.	.
=75	=75	=75	=75	=75	=75	=75	=75	=75	=75
1AA]	.	0r	.	2F\]	.	0c	-lis	0r	.
.	.	.	.	4E\	.	.	.	.	.
.	.	.	.	4D\	.	.	.	.	.
1AA	-ca-	.	.	1E	.	.	.	.	.
=76	=76	=76	=76	=76	=76	=76	=76	=76	=76
4DD/	-ta	1r	.	1F	.	1d	pec-	0r	.
4EE/	.	.	.	.	.	.	.	.	.
4FF/	.	.	.	.	.	.	.	.	.
4GG/	.	.	.	.	.	.	.	.	.
2AA/	.	2r	.	2.E\	.	2c\	.	.	.
2EE/	.	[2E\	pec-	.	.	[2B\	-ca-	.	.
.	.	.	.	4D\	.	.	.	.	.
=77	=77	=77	=77	=77	=77	=77	=77	=77	=77
1FF	mun-	2E\]	.	2C/	.	2B\]	.	0r	.
.	.	2D\	.	2AA/	.	1A	.	.	.
1EE	-di	1E	-ca-	1BB	.	.	.	.	.
.	.	.	.	.	.	2G#i/	.	.	.
=78	=78	=78	=78	=78	=78	=78	=78	=78	=78
2r	.	2C/	-ta	0AA	-lis	0A	-ta	0r	.
1E	[pec-	1c	mun-	.	.	.	.	.	.
4D\	.	4B\	.	.	.	.	.	.	.
4C/	.	4A\	.	.	.	.	.	.	.
=79	=79	=79	=79	=79	=79	=79	=79	=79	=79
4D\	.	2B\	.	0r	.	0r	.	0r	.
4C/	.	.	.	.	.	.	.	.	.
4BB/	.	1A	.	.	.	.	.	.	.
4AA/	.	.	.	.	.	.	.	.	.
1BB	-ca-	.	.	.	.	.	.	.	.
.	.	2G\	.	.	.	.	.	.	.
=80	=80	=80	=80	=80	=80	=80	=80	=80	=80
0AA	-ta	2F\	.	1r	.	0A	[pec-	0r	.
.	.	4E\	.	.	.	.	.	.	.
.	.	4D\	.	.	.	.	.	.	.
.	.	1E	.	1C	pec-	.	.	.	.
=81	=81	=81	=81	=81	=81	=81	=81	=81	=81
0r	.	0D	-di	2D\	-ca-	0A	-ca-	0r	.
.	.	.	.	1F	-ta	.	.	.	.
.	.	.	.	4E\	.	.	.	.	.
.	.	.	.	4D\	.	.	.	.	.
=82	=82	=82	=82	=82	=82	=82	=82	=82	=82
0AA	mun-	0r	.	2C/	.	1A	-ta]	0r	.
.	.	.	.	1E	mun-	.	.	.	.
.	.	.	.	.	.	1A	mun-	.	.
.	.	.	.	2F\	.	.	.	.	.
=83	=83	=83	=83	=83	=83	=83	=83	=83	=83
0GG	.	2r	.	1G	-di	1B	.	0r	.
.	.	1D	mi-	.	.	.	.	.	.
.	.	.	.	1r	.	1G	.	.	.
.	.	2E\	-se-	.	.	.	.	.	.
=84	=84	=84	=84	=84	=84	=84	=84	=84	=84
1DD	.	2F\	-re	0r	.	0A	-di	0r	.
.	.	4E\	.	.	.	.	.	.	.
.	.	4D\	.	.	.	.	.	.	.
1FF	.	2C/	.	.	.	.	.	.	.
.	.	[2D\	.	.	.	.	.	.	.
=85	=85	=85	=85	=85	=85	=85	=85	=85	=85
0EE	.	2D\]	.	1r	.	0r	.	0r	.
.	.	4C#i/	.	.	.	.	.	.	.
.	.	4BB/	.	.	.	.	.	.	.
.	.	1C#i	.	1G	mi-	.	.	.	.
=86	=86	=86	=86	=86	=86	=86	=86	=86	=86
1DD	-di]	0D	re	2F\	-se-	1r	.	0r	.
.	.	.	.	2.A\	-re-	.	.	.	.
2r	.	.	.	.	.	1A	mi-	.	.
.	.	.	.	4G\	.	.	.	.	.
[2D\	mi-	.	.	4F\	.	.	.	.	.
.	.	.	.	4E\	.	.	.	.	.
=87	=87	=87	=87	=87	=87	=87	=87	=87	=87
2D\]	.	0r	.	2F\	.	2.A/	-se-	0r	.
4C/	.	.	.	4E\	.	.	.	.	.
4BB/	.	.	.	4D\	.	4B\	.	.	.
2AA/	.	.	.	2C/	.	2c\	.	.	.
2D\	-se-	.	.	2F\	.	[2B\	-re-	.	.
=88	=88	=88	=88	=88	=88	=88	=88	=88	=88
2C/	-re	1r	.	2E\	.	2B\]	.	0r	.
2AA/	.	.	.	2C/	.	1A	-re	.	.
1BB	.	2r	.	1D	.	.	.	.	.
.	.	2D\	no-	.	.	2G#i/	no-	.	.
=89	=89	=89	=89	=89	=89	=89	=89	=89	=89
1AA	re	2.C/	.	4E\	-re	[0Al	-bis	0r	.
.	.	.	.	4D\	.	.	.	.	.
.	.	.	.	4C/	.	.	.	.	.
.	.	4D\	.	4BB/	.	.	.	.	.
2r	.	2E\	.	2AA/	.	.	.	.	.
2D\	no-	2F\	.	[2A\	no-	.	.	.	.
=90	=90	=90	=90	=90	=90	=90	=90	=90	=90
2C/	.	2E\	.	4A\]	.	0A_	.	0r	.
.	.	.	.	4G\	.	.	.	.	.
2D\	.	2.D\	.	2F\	.	.	.	.	.
1AA	.	.	.	1E	.	.	.	.	.
.	.	4C#i/	.	.	.	.	.	.	.
.	.	4C#i/	.	.	.	.	.	.	.
.	.	4BB/	.	.	.	.	.	.	.
=91	=91	=91	=91	=91	=91	=91	=91	=91	=91
0DDl	-bis	0Dl	-bis	0Dl	-bis	0A]	.	0r	.
!!LO:LB:i:g=z
=92||	=92||	=92||	=92||	=92||	=92||	=92||	=92||	=92||	=92||
*>C	*>C	*>C	*>C	*>C	*>C	*>C	*>C	*>C	*>C
*clefF4	*	*clefF4	*	*clefF4	*	*clefGv2	*	*clefGv2	*
*k[]	*	*k[]	*	*k[]	*	*k[]	*	*k[]	*
*M2/1	*	*M2/1	*	*M2/1	*	*M2/1	*	*M2/1	*
*met(C|)	*	*met(C|)	*	*met(C|)	*	*met(C|)	*	*met(C|)	*
!!section: Agnus Dei III
!!!OMD: Agnus Dei III
2.AA/	A-	0r	.	0r	.	0r	.	0r	.
4BB/	.	.	.	.	.	.	.	.	.
2C/	.	.	.	.	.	.	.	.	.
[2D\	.	.	.	.	.	.	.	.	.
=93	=93	=93	=93	=93	=93	=93	=93	=93	=93
2D\]	.	1r	.	0r	.	0A	A-	0r	.
4C/	.	.	.	.	.	.	.	.	.
4BB/	.	.	.	.	.	.	.	.	.
2C/	.	2r	.	.	.	.	.	.	.
2D\	-gnus	[2D\	A-	.	.	.	.	.	.
=94	=94	=94	=94	=94	=94	=94	=94	=94	=94
0r	.	4D\]	.	1r	.	1A	-gnus	0r	.
.	.	4E\	.	.	.	.	.	.	.
.	.	4F\	.	.	.	.	.	.	.
.	.	4G\	.	.	.	.	.	.	.
.	.	2A\	.	2r	.	1A	De-	.	.
.	.	2D\	-gnus	2F\	A-	.	.	.	.
=95	=95	=95	=95	=95	=95	=95	=95	=95	=95
0r	.	0r	.	2D\	.	1A	-i	0r	.
.	.	.	.	1F	-gnus	.	.	.	.
.	.	.	.	.	.	1A	[a-	.	.
.	.	.	.	4E\	.	.	.	.	.
.	.	.	.	4D\	.	.	.	.	.
=96	=96	=96	=96	=96	=96	=96	=96	=96	=96
0r	.	2r	.	1E	.	1G	-gnus	1r	.
.	.	2.E\	[A-	.	.	.	.	.	.
.	.	.	.	1r	.	1G	De-	2r	.
.	.	4D\	.	.	.	.	.	.	.
.	.	4C/	.	.	.	.	.	2e\	A-
.	.	4BB/	.	.	.	.	.	.	.
=97	=97	=97	=97	=97	=97	=97	=97	=97	=97
0r	.	2AA/	.	2r	.	0A	-i]	2c\	.
.	.	2D\	.	2F\	[A-	.	.	2d\	.
.	.	2C/	.	2E\	.	.	.	2A/	.
.	.	2D\	.	2D\	.	.	.	[2d\	.
=98	=98	=98	=98	=98	=98	=98	=98	=98	=98
0r	.	1AA	-gnus]	1E	.	0r	.	2d\]	.
.	.	.	.	.	.	.	.	2c\	.
.	.	2r	.	1D	-gnus	.	.	1d	-gnus
.	.	[2A\	De-	.	.	.	.	.	.
=99	=99	=99	=99	=99	=99	=99	=99	=99	=99
2r	.	4A\]	.	1r	.	1.c	[A-	1A	.
.	.	4G\	.	.	.	.	.	.	.
2.A\	[a-	2F\	.	.	.	.	.	.	.
.	.	2E\	.	2r	.	.	.	1r	.
4G\	.	.	.	.	.	.	.	.	.
2F\	.	2F\	.	2A\	A-	2c\	-gnu	.	.
=100	=100	=100	=100	=100	=100	=100	=100	=100	=100
2E\	.	2C/	.	2G\	.	1c	De-	0r	.
2F\	.	1F	.	2F\	.	.	.	.	.
1C	-gnus]	.	.	1G	.	1c	-i	.	.
.	.	2E\	.	.	.	.	.	.	.
=101	=101	=101	=101	=101	=101	=101	=101	=101	=101
1r	.	2F\	.	1F	-gnus]	1d	a-	0r	.
.	.	4E\	.	.	.	.	.	.	.
.	.	4D\	.	.	.	.	.	.	.
2r	.	2E\	.	1r	.	2c\	.	.	.
2D\	De-	2D\	.	.	.	[2B\	-gnus	.	.
=102	=102	=102	=102	=102	=102	=102	=102	=102	=102
2C/	.	2E\	.	0r	.	2B\]	.	2r	.
2AA/	.	2F\	.	.	.	1A	De-	1f	De-
1BB	.	1D	.	.	.	.	.	.	.
.	.	.	.	.	.	2G#i/	.	4e\	.
.	.	.	.	.	.	.	.	4d\	.
=103	=103	=103	=103	=103	=103	=103	=103	=103	=103
2.AA/	.	1E	-i	1r	.	0A	-i]	2.c\	.
4BB/	.	.	.	.	.	.	.	4d\	.
2C/	.	1r	.	2r	.	.	.	2e\	.
[2D\	.	.	.	[2F\	De-	.	.	2f\	.
=104	=104	=104	=104	=104	=104	=104	=104	=104	=104
2D\]	.	2r	.	2F\]	.	0r	.	1d	.
4C/	.	1A	qui	4E\	.	.	.	.	.
4BB/	.	.	.	4D\	.	.	.	.	.
1AA	-i	.	.	2.C/	.	.	.	2.e\	.
.	.	4G\	.	.	.	.	.	.	.
.	.	4F\	.	4D\	.	.	.	4f\	.
=105	=105	=105	=105	=105	=105	=105	=105	=105	=105
0r	.	2E\	.	2E\	.	0r	.	2g\	.
.	.	2G\	.	2C/	.	.	.	2.e\	.
.	.	2F\	.	2D\	.	.	.	.	.
.	.	.	.	.	.	.	.	4d\	.
.	.	4E\	.	4C/	.	.	.	[2d\	.
.	.	4D\	.	4BB/	.	.	.	.	.
=106	=106	=106	=106	=106	=106	=106	=106	=106	=106
1r	.	1E	.	1AA	-i	0A	qui	2d\]	.
.	.	.	.	.	.	.	.	2c\	.
2r	.	2D\	.	1r	.	.	.	2d\	.
2D\	qui	[2F\	.	.	.	.	.	4c\	.
.	.	.	.	.	.	.	.	4B\	.
=107	=107	=107	=107	=107	=107	=107	=107	=107	=107
2C/	.	4F\]	.	2r	.	0A	tol-	1A	-i
.	.	4E\	.	.	.	.	.	.	.
2D\	.	2D\	.	1A	[De-	.	.	.	.
2AA/	.	2C/	.	.	.	.	.	1r	.
[2D\	.	2D\	.	4G\	.	.	.	.	.
.	.	.	.	4F\	.	.	.	.	.
=108	=108	=108	=108	=108	=108	=108	=108	=108	=108
2D\]	.	1AA	.	1E	.	1A	-lis	2r	.
2C#i/	.	.	.	.	.	.	.	2.a\	qui
1D	.	2r	.	1D	-i]	1A	pec-	.	.
.	.	.	.	.	.	.	.	4g\	.
.	.	[2D\	tol-	.	.	.	.	4f\	.
.	.	.	.	.	.	.	.	4e\	.
=109	=109	=109	=109	=109	=109	=109	=109	=109	=109
0r	.	2D\]	.	0r	.	1B	-ca-	2d\	.
.	.	2BB/	.	.	.	.	.	2.g\	.
.	.	1C	.	.	.	1G	.	.	.
.	.	.	.	.	.	.	.	4f\	.
.	.	.	.	.	.	.	.	4e\	.
.	.	.	.	.	.	.	.	4d\	.
=110	=110	=110	=110	=110	=110	=110	=110	=110	=110
2r	.	1AA	-lis	1r	.	0A	-ta	2.c\	.
1AA	tol-	.	.	.	.	.	.	.	.
.	.	.	.	.	.	.	.	4d\	.
.	.	1r	.	2r	.	.	.	2e\	.
2D\	.	.	.	[2A\	qui	.	.	2f\	.
=111	=111	=111	=111	=111	=111	=111	=111	=111	=111
2C/	.	0r	.	4A\]	.	1r	.	2e\	.
.	.	.	.	4G\	.	.	.	.	.
2D\	-lis	.	.	4F\	.	.	.	2A/	.
.	.	.	.	4E\	.	.	.	.	.
1r	.	.	.	2D\	.	1A	[pec-	2r	.
.	.	.	.	[2F\	.	.	.	2A/	tol-
=112	=112	=112	=112	=112	=112	=112	=112	=112	=112
0r	.	0r	.	2F\]	.	2.A/	-ca-	2c\	.
.	.	.	.	4E\	.	.	.	2d\	.
.	.	.	.	4D\	.	4B\	.	.	.
.	.	.	.	4C/	.	2c\	.	1e	.
.	.	.	.	4D\	.	.	.	.	.
.	.	.	.	4E\	.	[2B\	.	.	.
.	.	.	.	4F\	.	.	.	.	.
=113	=113	=113	=113	=113	=113	=113	=113	=113	=113
0r	.	1r	.	2G\	.	2B\]	.	2d\	.
.	.	.	.	2A\	.	1A	.	2c\	.
.	.	2r	.	1E	.	.	.	1B	.
.	.	[2E\	[qui	.	.	2G#i/	.	.	.
=114	=114	=114	=114	=114	=114	=114	=114	=114	=114
2r	.	2E\]	.	0AA	.	1A	-ta	0A	-lis
1AA	pec-	1C	.	.	.	.	.	.	.
.	.	.	.	.	.	1r	.	.	.
2FF/	-ca-	2D\	.	.	.	.	.	.	.
=115	=115	=115	=115	=115	=115	=115	=115	=115	=115
2GG/	.	2BB/	.	1r	.	0E	pec-	0r	.
1AA	-ta	1C	tol-	.	.	.	.	.	.
.	.	.	.	2r	.	.	.	.	.
4GG/	.	4BB/	.	[2A\	tol-	.	.	.	.
4FF/	.	4AA/	.	.	.	.	.	.	.
=116	=116	=116	=116	=116	=116	=116	=116	=116	=116
1EE	.	1BB	.	2A\]	.	1E	-ca-	2r	.
.	.	.	.	2G\	.	.	.	2.e\	pec-
1r	.	1AA	-lis]	[1A	-lis	1E	-ta]	.	.
.	.	.	.	.	.	.	.	4d\	.
.	.	.	.	.	.	.	.	4c\	.
.	.	.	.	.	.	.	.	4B\	.
=117	=117	=117	=117	=117	=117	=117	=117	=117	=117
2r	.	1r	.	1A]	.	1.F	mun-	2A/	.
1AA	mun-	.	.	.	.	.	.	1c	.
.	.	2r	.	1F	pec-	.	.	.	.
4GG/	.	[2AA/	pec-	.	.	4E/	.	2d\	.
4FF/	.	.	.	.	.	4D/	.	.	.
=118	=118	=118	=118	=118	=118	=118	=118	=118	=118
1EE	.	2AA/]	.	1G	.	1C	.	1e	.
.	.	2GG/	-ca-	.	.	.	.	.	.
1DD	.	1AA	-ta	1F	.	1D	.	1f	.
=119	=119	=119	=119	=119	=119	=119	=119	=119	=119
1D	.	1r	.	1A	-ca-	1F	.	2f\	-ca-
.	.	.	.	.	.	.	.	1d	.
1GG	.	2r	.	1B	.	1G	.	.	.
.	.	2BB/	[pec	.	.	.	.	[2e\	.
=120	=120	=120	=120	=120	=120	=120	=120	=120	=120
0AA	.	1C	ca-	0F	.	0E	.	4e\]	.
.	.	.	.	.	.	.	.	4d\	.
.	.	.	.	.	.	.	.	4c\	.
.	.	.	.	.	.	.	.	4B\	.
.	.	1AA	-ta]	.	.	.	.	1c	.
=121	=121	=121	=121	=121	=121	=121	=121	=121	=121
0DD	-di	2r	.	1F	-ta	0D	-di	2d\	.
.	.	2A\	mun-	.	.	.	.	1f	.
.	.	2D\	.	4F\	mun-	.	.	.	.
.	.	.	.	4G\	.	.	.	.	.
.	.	2F\	.	4A\	.	.	.	4e\	.
.	.	.	.	4B\	.	.	.	4d\	.
=122	=122	=122	=122	=122	=122	=122	=122	=122	=122
0r	.	2C/	.	2c\	.	0r	.	2e\	.
.	.	2.G\	.	2B\	.	.	.	1d	.
.	.	.	.	1G	.	.	.	.	.
.	.	4F\	.	.	.	.	.	.	.
.	.	2E\	.	.	.	.	.	[2g\	.
=123	=123	=123	=123	=123	=123	=123	=123	=123	=123
0r	.	1D	-di	1A	.	0r	.	2g\]	.
.	.	.	.	.	.	.	.	2f#i\	.
.	.	2r	.	1G	-di	.	.	1g	-ta
.	.	2E\	[pec-	.	.	.	.	.	.
=124	=124	=124	=124	=124	=124	=124	=124	=124	=124
2r	.	2F\	-ca-	2r	.	[0A	do-	2r	.
1AA	[pec-	2E\	.	1c	[pec-	.	.	2e\	mun-
.	.	1C	-ta]	.	.	.	.	2f\	.
2AA/	-ca-	.	.	2c\	-ca-	.	.	2e\	.
=125	=125	=125	=125	=125	=125	=125	=125	=125	=125
1AA	-ta	2r	.	1c	-ta	1A]	.	4f\	.
.	.	.	.	.	.	.	.	4e\	.
.	.	2C/	mun-	.	.	.	.	2.a\	.
1FF	mun-	2D\	.	2r	.	1A	-na	.	.
.	.	.	.	.	.	.	.	4g\	.
.	.	2F\	.	[2c\	pec-	.	.	[2f\	.
=126	=126	=126	=126	=126	=126	=126	=126	=126	=126
1C	.	1C	-di	2c\]	.	1G	[do-	2f\]	.
.	.	.	.	2c\	-ca-	.	.	2e\	.
2FF/	.	1r	.	1c	-ta	1F	.	1f	-di
[2F\	.	.	.	.	.	.	.	.	.
=127	=127	=127	=127	=127	=127	=127	=127	=127	=127
4F\]	.	0r	.	2r	.	2.A/	.	1r	.
4E\	.	.	.	.	.	.	.	.	.
2D\	.	.	.	2F\	mun-	.	.	.	.
.	.	.	.	.	.	4B\	.	.	.
2C/	.	.	.	2E\	.	2c\	.	2r	.
2D\	.	.	.	2D\	.	[2B\	.	2f\	[pec-
=128	=128	=128	=128	=128	=128	=128	=128	=128	=128
2C/	.	0r	.	2E\	.	2B\]	.	2e\	.
2AA/	.	.	.	2F\	.	1A	.	2c\	.
1BB	-di]	.	.	1D	.	.	.	1d	-ca-
.	.	.	.	.	.	2G/	.	.	.
=129	=129	=129	=129	=129	=129	=129	=129	=129	=129
[0AA	do-	2r	.	1E	-di]	1A	-na]	2c\	-ta
.	.	2E\	do-	.	.	.	.	2.e\	mun-
.	.	2F\	.	1r	.	1r	.	.	.
.	.	.	.	.	.	.	.	4d\	.
.	.	4E\	.	.	.	.	.	[2d\	.
.	.	4D\	.	.	.	.	.	.	.
=130	=130	=130	=130	=130	=130	=130	=130	=130	=130
1AA]	.	1E	.	2r	.	0A	no-	2d\]	.
.	.	.	.	2A\	do-	.	.	2c#i\	.
1DD	-na	[1D	.	2F\	.	.	.	[1d	-di
.	.	.	.	[2A\	.	.	.	.	.
=131	=131	=131	=131	=131	=131	=131	=131	=131	=131
2r	.	0D]	-na	4A\]	.	1A	-bis	1d]	.
.	.	.	.	4G\	.	.	.	.	.
2.D\	no-	.	.	4F\	.	.	.	.	.
.	.	.	.	4E\	.	.	.	.	.
.	.	.	.	2D\	.	1A	[do-	2r	.
4C/	.	.	.	.	.	.	.	.	.
4BB/	.	.	.	[2d\	-na	.	.	[2d\	do-
4AA/	.	.	.	.	.	.	.	.	.
=132	=132	=132	=132	=132	=132	=132	=132	=132	=132
1GG	-bis	2r	.	4d\]	.	1B	-na	2d\]	.
.	.	.	.	4c\	.	.	.	.	.
.	.	2.G\	no-	4B\	.	.	.	2d\	-na
.	.	.	.	4A\	.	.	.	.	.
1r	.	.	.	1G	.	1B	no-	1d	no-
.	.	4F\	.	.	.	.	.	.	.
.	.	4E\	.	.	.	.	.	.	.
.	.	4D\	.	.	.	.	.	.	.
=133	=133	=133	=133	=133	=133	=133	=133	=133	=133
2r	.	1C	-bis	0r	.	0c	-bis	2.e\	.
2.C/	pa-	.	.	.	.	.	.	.	.
.	.	.	.	.	.	.	.	4f\	.
.	.	1r	.	.	.	.	.	2g\	.
4BB/	.	.	.	.	.	.	.	.	.
4AA/	.	.	.	.	.	.	.	[2a\	.
4GG/	.	.	.	.	.	.	.	.	.
=134	=134	=134	=134	=134	=134	=134	=134	=134	=134
4FF/	.	2.C/	[do-	0r	.	1.c	[pa-	4a\]	.
4GG/	.	.	.	.	.	.	.	4g\	.
4AA/	.	.	.	.	.	.	.	2f\	.
4BB/	.	4D\	.	.	.	.	.	.	.
2C/	.	2E\	.	.	.	.	.	2e\	.
2D\	.	2F\	-na	.	.	2B\	.	2d\	.
=135	=135	=135	=135	=135	=135	=135	=135	=135	=135
2C/	.	2E\	no-	1r	.	1A	.	2e\	.
2D\	.	2D\	-bis	.	.	.	.	2f\	.
1BB	.	1r	.	2r	.	1G	.	4g\	-bis
.	.	.	.	.	.	.	.	4f\	.
.	.	.	.	2D\	no-	.	.	4e\	.
.	.	.	.	.	.	.	.	4d\	.
=136	=136	=136	=136	=136	=136	=136	=136	=136	=136
2AA/	.	0r	.	2E\	.	1A	.	2c\	.
1D	.	.	.	4F\	.	.	.	2d\	.
.	.	.	.	4D\	.	.	.	.	.
.	.	.	.	2d\	.	2F/	-cem]	2f\	pa-
2E\	.	.	.	2B\	.	[2G/	pa	[2e\	.
=137	=137	=137	=137	=137	=137	=137	=137	=137	=137
2C/	.	1r	.	2c\	.	4G/]	.	4e\]	.
.	.	.	.	.	.	4F/	.	4d\	.
2D\	.	.	.	1A	.	4E/	.	1d	.
.	.	.	.	.	.	4D/	.	.	.
1AA	.	2r	.	.	.	1E	.	.	.
.	.	[2A\	do-	2A\	.	.	.	2c#i\	.
=138	=138	=138	=138	=138	=138	=138	=138	=138	=138
[0DDl	-cem	2A\]	.	1F	-bis	[0Dl	cem	[0dl	-cem
.	.	2A\	-na	.	.	.	.	.	.
.	.	2F\	no	2r	.	.	.	.	.
.	.	2D\	bis]	[2F\	pa-	.	.	.	.
=139	=139	=139	=139	=139	=139	=139	=139	=139	=139
0DD_	.	2.F\	pa-	2F\]	.	0D_	.	0d_	.
.	.	.	.	2D\	.	.	.	.	.
.	.	4G\	.	.	.	.	.	.	.
.	.	1A	.	2.F\	.	.	.	.	.
.	.	.	.	4G\	.	.	.	.	.
=140	=140	=140	=140	=140	=140	=140	=140	=140	=140
0DD]	.	0AAl	-cem	0Al	-cem	0D]	.	0d]	.
==	==	==	==	==	==	==	==	==	==
*-	*-	*-	*-	*-	*-	*-	*-	*-	*-
!!!RDF**kern: l=long note in original notation
!!!RDF**kern: i=editorial accidental
!!!ENC:	Jesse Rodin 8/24/2013
!!!END:	2013/08/26/
!!!EED:	Jesse Rodin
!!!EEV:	2013/08/29/
!!!ONB:	Translated from MusicXML and edited on 2013/08/29/ by Craig Sapp
!!muse2ps: T^@{OPR}^u^@{ONM}{. }@{OTL}^C^@{COM}^i2I150v85,85,85,85,110Q16
